Adwaita++/apps/16/google-webdesigner.svg

<svg height="16" viewBox="0 0 16 16" width="16" xmlns="http://www.w3.org/2000/svg">
  <path d="m8.6799132.5000375c-3.6155869 0-6.5466294 2.9310237-6.5466294 6.5466331.00137.034016.00529.1160315.00831.1749922h-1.1415938a8.3320415 8.3320415 0 0 0 8.3300751 8.2783372 8.3320415 8.3320415 0 0 0 .064706-.0033v-4.8816a3.5708748 3.5708748 0 0 1 -3.4335918-3.3933238c.076536-1.5570898 1.3262174-2.8320379 2.8847623-2.8696064v.0002268c.034394-.00189.1343622-.00756.1687181.00378 1.3147583 0 2.3637693 1.070967 2.3637693 2.3857512-.000945.026457-.0023.054425-.0042.081638h2.64624c-.0009-.092976-.0042-.1855748-.0098-.2781732-.01247-.1780158-.03402-.3556536-.06444-.531515-.03024-.176126-.06962-.3499842-.11743-.5222173-.04772-.1719692-.103998-.34167-.168703-.5083094-.064743-.1662992-.137726-.3295748-.218759-.4887685-.08092-.1591181-.169701-.3140787-.266117-.4640882-.096491-.1504252-.200466-.295937-.311508-.4357795-.111005-.1398425-.229077-.2740158-.3535-.4021039-.124422-.128126-.255042-.2498268-.3916-.3651024-.13663-.1152756-.27908-.2233701-.426516-.3242835-.147364-.1009134-.299603-.1938897-.456299-.279685-.156737-.0857953-.317669-.1632756-.482176-.2328189-.164448-.0695433-.332372-.1307717-.502931-.1836851-.170645-.0529133-.3437481-.0971338-.5187969-.1326614-.1749921-.0340157-.3516095-.0623622-.5292964-.080126-.098079-.007559-.2531528-.0188976-.3564472-.0226771v-1.0632189c-.055295-.00333-.1106646-.00756-.1659969-.00756zm2.6943378 6.3234898c-.03866 1.072252-.908462 1.9401827-1.9794931 2.0046237v1.756612c.074003-.000341.1480819-.0028.2219338-.0076.1187528-.0076.2369386-.02268.354255-.04309.1173173-.0189.2334243-.04611.3481323-.07824.114709-.03019.227906-.06912.338873-.112208.111005-.04309.219779-.09184.325909-.14589.106128-.05405.209385-.113008.30958-.177638.10012-.06425.196838-.133795.290041-.2078744.09328-.07408.182854-.152693.268309-.235465.08534-.08277.166526-.170078.243175-.2611649.07676-.091087.149027-.1859528.216302-.2842205.06716-.098268.129487-.1995591.18652-.303874.05711-.104315.108888-.2116536.155263-.3216378.04634-.1096063.08716-.2214804.122305-.3352441.03515-.1137638.06448-.2294174.08814-.3458268.02381-.1167874.04154-.2347087.05348-.3530079.01172-.1182992.01776-.2373543.01776-.3564094-.000518-.063874-.0029-.1273701-.0068-.1908662z" fill="#444"/>
</svg>

<svg xmlns="http://www.w3.org/2000/svg" style="isolation:isolate" width="16" height="16" version="1.1" viewBox="0 0 16 16">
 <defs>
  <style id="current-color-scheme" type="text/css">
   .ColorScheme-Text { color:#474747; } .ColorScheme-Highlight { color:#5294e2; }
  </style>
  <linearGradient id="arrongin" x1="0%" x2="0%" y1="0%" y2="100%">
   <stop style="stop-color:#dd9b44" id="stop3" offset="0%"/>
   <stop style="stop-color:#ad6c16" id="stop5" offset="100%"/>
  </linearGradient>
  <linearGradient id="aurora" x1="0%" x2="0%" y1="0%" y2="100%">
   <stop style="stop-color:#09D4DF" id="stop8" offset="0%"/>
   <stop style="stop-color:#9269F4" id="stop10" offset="100%"/>
  </linearGradient>
  <linearGradient id="fitdance" x1="0%" x2="0%" y1="0%" y2="100%">
   <stop style="stop-color:#1AD6AB" id="stop13" offset="0%"/>
   <stop style="stop-color:#329DB6" id="stop15" offset="100%"/>
  </linearGradient>
  <linearGradient id="oomox" x1="0%" x2="0%" y1="0%" y2="100%">
   <stop style="stop-color:#efefe7" id="stop18" offset="0%"/>
   <stop style="stop-color:#8f8f8b" id="stop20" offset="100%"/>
  </linearGradient>
  <linearGradient id="rainblue" x1="0%" x2="0%" y1="0%" y2="100%">
   <stop style="stop-color:#00F260" id="stop23" offset="0%"/>
   <stop style="stop-color:#0575E6" id="stop25" offset="100%"/>
  </linearGradient>
  <linearGradient id="sunrise" x1="0%" x2="0%" y1="0%" y2="100%">
   <stop style="stop-color:#FF8501" id="stop28" offset="0%"/>
   <stop style="stop-color:#FFCB01" id="stop30" offset="100%"/>
  </linearGradient>
  <linearGradient id="telinkrin" x1="0%" x2="0%" y1="0%" y2="100%">
   <stop style="stop-color:#b2ced6" id="stop33" offset="0%"/>
   <stop style="stop-color:#6da5b7" id="stop35" offset="100%"/>
  </linearGradient>
  <linearGradient id="60spsycho" x1="0%" x2="0%" y1="0%" y2="100%">
   <stop style="stop-color:#df5940" id="stop38" offset="0%"/>
   <stop style="stop-color:#d8d15f" id="stop40" offset="25%"/>
   <stop style="stop-color:#e9882a" id="stop42" offset="50%"/>
   <stop style="stop-color:#279362" id="stop44" offset="100%"/>
  </linearGradient>
  <linearGradient id="90ssummer" x1="0%" x2="0%" y1="0%" y2="100%">
   <stop style="stop-color:#f618c7" id="stop47" offset="0%"/>
   <stop style="stop-color:#94ffab" id="stop49" offset="20%"/>
   <stop style="stop-color:#fbfd54" id="stop51" offset="50%"/>
   <stop style="stop-color:#0f83ae" id="stop53" offset="100%"/>
  </linearGradient>
 </defs>
 <path fill="#444" d="m 8.6799132,0.5000375 c -3.6155869,0 -6.5466294,2.9310237 -6.5466294,6.5466331 0.00137,0.034016 0.00529,0.1160315 0.00831,0.1749922 H 1 A 8.3320415,8.3320415 0 0 0 9.3300751,15.5 8.3320415,8.3320415 0 0 0 9.3947811,15.4967 V 10.6151 A 3.5708748,3.5708748 0 0 1 5.9611893,7.2217762 C 6.0377253,5.6646864 7.2874067,4.3897383 8.8459516,4.3521698 v 2.268e-4 c 0.034394,-0.00189 0.1343622,-0.00756 0.1687181,0.00378 1.3147583,0 2.3637693,1.070967 2.3637693,2.3857512 -9.45e-4,0.026457 -0.0023,0.054425 -0.0042,0.081638 h 2.64624 c -9e-4,-0.092976 -0.0042,-0.1855748 -0.0098,-0.2781732 -0.01247,-0.1780158 -0.03402,-0.3556536 -0.06444,-0.531515 -0.03024,-0.176126 -0.06962,-0.3499842 -0.11743,-0.5222173 C 13.781089,5.3196911 13.724811,5.1499903 13.660106,4.9833509 13.595363,4.8170517 13.52238,4.6537761 13.441347,4.4945824 13.360427,4.3354643 13.271646,4.1805037 13.17523,4.0304942 13.078739,3.880069 12.974764,3.7345572 12.863722,3.5947147 12.752717,3.4548722 12.634645,3.3206989 12.510222,3.1926108 12.3858,3.0644848 12.25518,2.942784 12.118622,2.8275084 11.981992,2.7122328 11.839542,2.6041383 11.692106,2.5032249 11.544742,2.4023115 11.392503,2.3093352 11.235807,2.2235399 11.07907,2.1377446 10.918138,2.0602643 10.753631,1.990721 10.589183,1.9211777 10.421259,1.8599493 10.2507,1.8070359 10.080055,1.7541226 9.9069519,1.7099021 9.7319031,1.6743745 9.556911,1.6403588 9.3802936,1.6120123 9.2026067,1.5942485 9.1045277,1.5866895 8.9494539,1.5753509 8.8461595,1.5715714 V 0.5083525 c -0.055295,-0.00333 -0.1106646,-0.00756 -0.1659969,-0.00756 z M 11.374251,6.8235273 C 11.335591,7.8957793 10.465789,8.76371 9.3947579,8.828151 v 1.756612 c 0.074003,-3.41e-4 0.1480819,-0.0028 0.2219338,-0.0076 0.1187528,-0.0076 0.2369386,-0.02268 0.354255,-0.04309 0.1173173,-0.0189 0.2334243,-0.04611 0.3481323,-0.07824 0.114709,-0.03019 0.227906,-0.06912 0.338873,-0.112208 0.111005,-0.04309 0.219779,-0.09184 0.325909,-0.14589 0.106128,-0.05405 0.209385,-0.113008 0.30958,-0.177638 0.10012,-0.06425 0.196838,-0.133795 0.290041,-0.2078744 0.09328,-0.07408 0.182854,-0.152693 0.268309,-0.235465 0.08534,-0.08277 0.166526,-0.170078 0.243175,-0.2611649 0.07676,-0.091087 0.149027,-0.1859528 0.216302,-0.2842205 0.06716,-0.098268 0.129487,-0.1995591 0.18652,-0.303874 0.05711,-0.104315 0.108888,-0.2116536 0.155263,-0.3216378 0.04634,-0.1096063 0.08716,-0.2214804 0.122305,-0.3352441 0.03515,-0.1137638 0.06448,-0.2294174 0.08814,-0.3458268 0.02381,-0.1167874 0.04154,-0.2347087 0.05348,-0.3530079 0.01172,-0.1182992 0.01776,-0.2373543 0.01776,-0.3564094 -5.18e-4,-0.063874 -0.0029,-0.1273701 -0.0068,-0.1908662 z"/>
</svg>
